X:114
T:Saghoni Waltz,The. GS.114
T:Green Hills of Tyrol,aka. GS.114
M:3/4
L:1/8
Q:3/4=50
S:George Spencer m/s, Leeds,1831
R:.Waltz
O:England
A:Leeds
N:> -shown under the note â€“ diminuendo?George Spencer Book Leeds
N:September 5, 1831 written on stave after
N:music. A fairly close relative of â€œGreen Hills of Tyrolâ€
H:183
Z:vmp.Cherri Graebe
K:G major
â€œpâ€DGA | (B2 B)(GBc) | (d2 d)(eBe) | (dcAFAe) | (dBG) â€œ^fâ€(DGA) |\
(B2 B)(GBc) | (d2 d)(eBe) | (dcA) (DFA) | G2 z2G2 |\
â€œ^>â€g4 (fe) | ed dzâ€^>â€e2 | \
dc cz â€œ^>â€d2 | cB Bz G2 | â€œ^pâ€g4 (fe) | (ed) d z e2 | (d^c) c z BA |\
d3 AfA | (e2 e)A(^cA) |\
(d2 d)(AfA) | (e2 e)(A^cA) | (de)(^cede) | =cdBdAd |\
G2 z â€œ^pâ€(DGA) | (B2B)(GBc) | (d2d)(eBe) |\
(dcA) (FAe) | (dBG) (DGA) | (B2 B)(GBc) | (d2 d)(eBe) | \
dcA DFA | â€œ^fâ€G2z FGA |(B2 B)F^dF | (B2 B)cBA | \
(G2 G)DBD | G2 z â€œpâ€FGA |(B2 B)F^dF | (B2 B)cBA | \
(G2 G)DBD | G2 G z G2 | g4 fe | (ed) dzâ€^>â€e2 | (dc) c z â€œ^>â€d2 |\
cB Bz2G | g4 fe | ed d z e2 |\
dc c z (3(A/B/c/) Hf2 | (3(G/B/d/) Hg2 f2 z |]
W:â€George Spencer Book Leeds September 5 1831â€

